X:1
T:Title
%%score { ( 1 3 ) | ( 2 4 ) }
L:1/8
M:4/4
K:G
V:1 treble nm="Grand Piano"
V:3 treble 
V:2 bass 
V:4 bass 
V:1
 z4 z2[Q:1/4=100] DD | .E2 z2 [CF]2 FF |[M:3/4] FD A>B [B,G]2 |[M:1/4] Bc | %4
[M:4/4] dedB [B,G]2 [^CGA]2 | [DF]2 z2 z4 |[M:3/4] .E2 z2 z2 |[M:1/4] z2 | %8
[M:4/4] [A,CF]D c>d B2 BB | dc z z/ c/ B2 z2 |[M:3/4] [B,G]6 |[M:1/4] [B,G][B,G] | %12
[M:4/4] [DFA]<[DFA] [EA]>[E^GB] [EAc]2 FF |[M:3/4] G<G G>[EA] [^DB]2 |[M:1/4] [^DB][DA] | %15
[M:4/4] GAB[Gd] d2 ^c-[Gc] |[M:9/8] d2- [Gd]- [Gd-] [Fd]2- [Fd][Fd][Fc] |[M:3/4] B>B dB [FA]2 | %18
[M:1/4] [FB][FA] |[M:4/4] G>G BG [^DF]2 [DG][DF] | E<E [Ed]>[Ec] [DB]2 [CA]2 |[M:3/4] [B,G]6 |] %22
V:2
 z8 | z/ D3/2[K:treble] G>A[K:bass] [A,,D,]2 z2 |[M:3/4] [D,F,]2 z2 z2 |[M:1/4] [G,D]2 | %4
[M:4/4][K:treble] [G,G]-[G,-CG-][G,-B,G-][G,DG] G,2[K:bass] E,2 | D,2 A,,2 D,2 DD | %6
[M:3/4] z/[K:treble] D3/2 G>A[K:bass] [A,,D,]2 |[M:1/4][K:treble] FF | %8
[M:4/4][K:bass] z F, D,2[K:treble] [G,DG]2 [^G,D=F]2 | E2 z2[K:bass] z2 A2 |[M:3/4] G,6 | %11
[M:1/4] G,G, |[M:4/4] D,<D, C,>B,, A,,2 [D,A,D][D,A,C] | %13
[M:3/4] [E,G,B,]<[E,G,B,] [C,E,C]>[C,E,] [B,,F,]2 |[M:1/4] [B,,F,][B,,B,] | %15
[M:4/4] [E,B,E][E,A,E][E,G,E][E,B,] [A,F]2 [A,,A,]2 |[M:9/8] A,2 _B,- B, A,2- A,[D,A,][D,D] | %17
[M:3/4][K:treble] [G,DG]>[G,DG] [B,DG][G,DG][K:bass] [D,D]2 |[M:1/4] [D,D][D,C] | %19
[M:4/4] [E,B,E]>[E,B,E] [G,B,E][E,B,E] [B,,B,]2 [B,,B,][B,,A,] | %20
 [C,G,]<[C,G,] [A,,A,]>[A,,A,] [D,F,]2 [D,F,]2 |[M:3/4] [G,,G,]6 |] %22
V:3
 x8 | B,4 z4 |[M:3/4] x6 |[M:1/4] x2 |[M:4/4] x8 | A2- [G,^CA-]2 [F,=CA]2 z2 |[M:3/4] B,4 [CF]2 | %7
[M:1/4] x2 |[M:4/4] z2 [DF]2 z4 | z2 E2 [CF]4 |[M:3/4] x6 |[M:1/4] x2 |[M:4/4] x8 |[M:3/4] x6 | %14
[M:1/4] x2 |[M:4/4] z4 z2 .E2 |[M:9/8] .F3 z3 z3 |[M:3/4] x6 |[M:1/4] x2 |[M:4/4] x8 | x8 | %21
[M:3/4] x6 |] %22
V:4
 x8 | [G,,D,]2[K:treble] z2[K:bass] z4 |[M:3/4] C2- [D,C]2 [G,,D,]2 |[M:1/4] z A, | %4
[M:4/4][K:treble] .B,2 z2 z4[K:bass] | x8 |[M:3/4] [G,,D,]2[K:treble] z2[K:bass] z2 | %7
[M:1/4][K:treble] x2 |[M:4/4][K:bass] D,2 z2[K:treble] z4 | [A,C]4[K:bass] D,4 |[M:3/4] x6 | %11
[M:1/4] x2 |[M:4/4] x8 |[M:3/4] x6 |[M:1/4] x2 |[M:4/4] x8 |[M:9/8] D,6- D, z z | %17
[M:3/4][K:treble] x4[K:bass] x2 |[M:1/4] x2 |[M:4/4] x8 | x8 |[M:3/4] x6 |] %22

